X:1
T:When Fortune Turns the Wheel
M:4/4
L:1/4
K:F
 z3 F| F D C B| B A G F| F D C C| C3 c| c c d c| B A G F| EF/2-B/2 B A|\
 G3 c| c c d c| B A G F| F B B/2- G c/2| c3 c/2c/2| c A G/2- F B/2|\
 B3/2 A/2 G F| FD/2-C/2 C3/2 C/2| C3 z|
